svgs/sharp-regular/shredder.svg

<svg xmlns="http://www.w3.org/2000/svg" viewBox="0 0 512 512"><!--! Font Awesome Pro 6.6.0 by @fontawesome - https://fontawesome.com License - https://fontawesome.com/license (Commercial License) Copyright 2024 Fonticons, Inc. --><path d="M112 192l0-144 252.1 0L400 83.9 400 192l-288 0zm352 0l-16 0 0-128L384 0 112 0 64 0l0 48 0 144-16 0L0 192l0 48 0 96 0 48 48 0 416 0 48 0 0-48 0-96 0-48-48 0zm0 48l0 96L48 336l0-96 416 0zM40 488l0 24 48 0 0-24 0-72-48 0 0 72zm96 0l0 24 48 0 0-24 0-72-48 0 0 72zm96 0l0 24 48 0 0-24 0-72-48 0 0 72zm96 0l0 24 48 0 0-24 0-72-48 0 0 72zm96 0l0 24 48 0 0-24 0-72-48 0 0 72z"/></svg>

<svg xmlns="http://www.w3.org/2000/svg" viewBox="0 0 512 512"><!--! Font Awesome Pro 6.4.2 by @fontawesome - https://fontawesome.com License - https://fontawesome.com/license (Commercial License) Copyright 2023 Fonticons, Inc. --><path d="M112 192V48H364.1L400 83.9V192H112zm352 0H448V64L384 0H112 64V48 192H48 0v48 96 48H48 464h48V336 240 192H464zm0 48v96H48V240H464zM40 488v24H88V488 416H40v72zm96 0v24h48V488 416H136v72zm96 0v24h48V488 416H232v72zm96 0v24h48V488 416H328v72zm96 0v24h48V488 416H424v72z"/></svg>
